X:1
T:Title
%%score { ( 1 4 ) | ( 2 3 ) }
L:1/8
Q:1/4=100
M:4/4
K:Ab
V:1 treble nm="Grand Piano"
V:4 treble 
V:2 bass 
V:3 bass 
V:1
 [Ec]3 [DB] [CA][CE][_C=D][=CE] | [DF]6 z2 | [Fd]3 [Fc] [=DB][DA][DG][DA] | B6 z2 | %4
w: J.~M.~Black * * * * *||||
 c3 e d[Ec][EB][EA] | [EG]4 F2 z2 | E3 d EdcB |[M:3/4] [CA]6 |[M:1/4] cc |[M:4/4] B6 z2 | c6 z2 | %11
w: |||||||
 [GB]2 [Ge]2 [Ge]2 [A=d]2 | e6 z2 | c3 e d[Ec][EB][EA] | [EG]4 F2 z2 | E3 d EdcB | [CA]6 z2 |] %17
w: ||||||
V:2
 [A,,A,]3 [A,,A,] [A,,A,][A,,A,][A,,A,][A,,A,] | [D,A,]6 z2 | %2
 [D,A,]3 [D,A,] [B,,B,][B,,F,][B,,B,][B,,B,] | [E,G,E]6 z2 | %4
 [A,E]3 [A,CE] [A,B,E][A,,A,][B,,G,][C,A,] | z4 D2 z2 | %6
 [E,A,C]3 [E,G,E] [E,G,][E,B,E][E,A,E][E,G,D] |[M:3/4] [A,,A,]6 |[M:1/4] z2 | %9
[M:4/4] z2 [E,D][E,D] [E,D]2 z2 | z2[K:treble] [A,E][A,E] [A,E]2 [A,EA][A,EA] | %11
 [E,E]2 [E,B,]2 [B,,B,]2 [B,,B,]2 | B,2 B,C B,2 z2 | [A,E]3 [A,CE] [A,B,E][A,,A,][B,,G,][C,A,] | %14
 z4 D2 z2 | [E,A,C]3 [E,G,E] [E,G,][E,B,E][E,A,E][E,G,D] | [A,,A,]6 z2 |] %17
V:3
 x8 | x8 | x8 | x8 | x8 | [D,A,]6 z2 | x8 |[M:3/4] x6 |[M:1/4] x2 |[M:4/4] x8 | x2[K:treble] x6 | %11
 x8 | E,6 z2 | x8 | [D,A,]6 z2 | x8 | x8 |] %17
V:4
 x8 | x8 | x8 | x8 | x8 | x8 | x8 |[M:3/4] x6 |[M:1/4] x2 |[M:4/4] z2 GG G2 dd | z2 AA A2 cc | x8 | %12
 G2 GA G2 z2 | x8 | x8 | x8 | x8 |] %17

